X: 732
T: Winter Apples   #2
R: reel
%S: s:4 b:16(4+4+4+4)
B: Francis O'Neill: "The Dance Music of Ireland" (1907) #732
Z: by Frank Nordberg - http://www.musicaviva.com
F: http://www.musicaviva.com/abc/tunes/ireland/oneill-1001/0732/oneill-1001-0732-1.abc
M: C|
L: 1/8
K: G
"^A"[|] (3(def) !segno! \
|: g2fd   edBA | GABG AGEF | GFGA BABd | (3(efg) (af) [1 gfed :|[2 Hg2 |]
"^B"\
[| (ef) | (3(gab) (eg) b2(ag) | (3(fg(a) d)f a2(gf) | (3(gab) (eg) b2(ag) | (3(fga) (df) e2 ||
|| (ef) | gb2b b2ag | fa2a a2gf | (3(gag) bg (3(fgf) af | edef gba!segno!f |]
